src/Assets/icons/twitter.svg

<svg width="17" height="14" viewBox="0 0 17 14" fill="none" xmlns="http://www.w3.org/2000/svg">
<path d="M5.69994 13.0226C11.7362 13.0226 15.0387 8.02039 15.0387 3.68382C15.0387 3.5432 15.0356 3.39945 15.0293 3.25882C15.6718 2.79422 16.2262 2.21875 16.6665 1.55945C16.0682 1.82565 15.4329 1.9995 14.7824 2.07507C15.4674 1.66452 15.9802 1.01956 16.2259 0.259761C15.5815 0.641621 14.8769 0.910991 14.1421 1.05632C13.6471 0.53029 12.9925 0.181994 12.2796 0.0652837C11.5668 -0.0514265 10.8353 0.0699499 10.1983 0.410647C9.56137 0.751345 9.05437 1.29239 8.75574 1.95012C8.4571 2.60786 8.38346 3.34566 8.54619 4.04945C7.2415 3.98398 5.96513 3.64505 4.79983 3.05465C3.63452 2.46425 2.6063 1.63554 1.78182 0.622261C1.36277 1.34475 1.23454 2.19968 1.42319 3.01331C1.61184 3.82694 2.10321 4.53821 2.79744 5.00257C2.27626 4.98603 1.76649 4.8457 1.31025 4.5932V4.63382C1.30979 5.39202 1.5719 6.12697 2.05204 6.71376C2.53219 7.30055 3.20072 7.70296 3.944 7.85257C3.46121 7.98467 2.95449 8.00392 2.46307 7.90882C2.67281 8.56087 3.08089 9.13118 3.63035 9.54014C4.17982 9.9491 4.84325 10.1763 5.52807 10.1901C4.36545 11.1033 2.92929 11.5987 1.45088 11.5963C1.1887 11.5959 0.92677 11.5799 0.666504 11.5482C2.16841 12.5117 3.91552 13.0235 5.69994 13.0226Z" fill="#232536"/>
</svg>

<svg xmlns="http://www.w3.org/2000/svg" width="17" height="14" fill="none" xmlns:v="https://vecta.io/nano"><path d="M5.7 13.023c6.036 0 9.339-5.002 9.339-9.339 0-.141-.003-.284-.009-.425.643-.465 1.197-1.04 1.637-1.699a6.47 6.47 0 0 1-1.884.516A3.3 3.3 0 0 0 16.226.26a6.6 6.6 0 0 1-2.084.797C13.647.53 12.993.182 12.28.065s-1.444.005-2.081.345-1.144.882-1.443 1.539-.372 1.396-.21 2.099c-1.305-.065-2.581-.404-3.746-.995S2.606 1.636 1.782.622c-.419.722-.547 1.577-.359 2.391s.68 1.525 1.374 1.989c-.521-.017-1.031-.157-1.487-.409v.041a3.28 3.28 0 0 0 2.634 3.219c-.483.132-.99.151-1.481.056a3.29 3.29 0 0 0 3.065 2.281c-1.163.913-2.599 1.409-4.077 1.406a6.57 6.57 0 0 1-.784-.048c1.502.963 3.249 1.475 5.033 1.474z" fill="#232536"/></svg>
